X:1
T:James Gibb editions
T:To give Thee glory, heavenly King - Barnby
%%score [ ( 1 2 ) ( 3 4 ) ]
L:1/8
Q:1/4=76
M:4/4
K:D
V:1 treble nm="Midi_74"
V:2 treble 
V:3 bass nm="Midi_74"
V:4 bass 
V:1
"^Stately""^Joseph Barnby\n(1838-96)""^L.M.""^To give Thee glory, heavenly King" A2 | A2 F2 A2 B2 | %2
 c3 B A2 || G2 | F2 ^G2 A2 Bc | B3 B A2 ||[M:4/4] c2 | e3 e B2 c2 | d2 d2 A2 || A2 | A2 B2 D2 F2 | %11
 E3 D D4 || G4 F4 |] %13
V:2
 A,2 | F2 D2 D2 F2 | E2 C2 D2 || E2 | F2 E2 E2 DC | F2"^1" E2 C2 ||[M:4/4] E2 | G3 G E2 E2 | %8
 D2 E2 E2 || E2 | FD CB, A,2 D2 | C3 D D4 || D4 D4 |] %13
V:3
 A,2 | A,2 A,2 A,2 A,2 | G,2 G,2 F,2 || E,2 | A,2 B,2 A,2 A,2 | A,2 ^G,2 A,2 ||[M:4/4] A,2 | %7
 B,3 B, B,2 G,2 | F,2 ^G,2 A,2 || =G,2 | F,2 ^E,2 F,2 A,2 | G,3 F, F,4 || B,4 A,4 |] %13
V:4
 A,2 | D,2 A,2 F,2 D,2 | E,2 A,,2 B,,2 || C,2 | D,2 D,2 C,2 F,E, | D,2 E,2 A,2 ||[M:4/4] A,2 | %7
 E,3 E, G,2 E,2 | B,,2 B,,2 C,2 || C,2 | D,2 ^G,,2 A,,2 A,,2 | A,,3 D, D,4 || G,,4 D,4 |] %13

